;FLAVOR:Marlin
;TIME:3605
;Filament used: 1.76167m
;Layer height: 0.15
;Generated with Cura_SteamEngine 3.1.0
M104 S200
M109 S200
M82 ; absolute extrusion mode
G28 ;Home
G1 Z15.0 F6000 ;Move the platform down 15mm
;Prime the extruder
G92 E0
G1 F200 E3
G92 E0
;LAYER_COUNT:40
;LAYER:0
M107
G0 F3600 X33.222 Y39.334 Z0.3
;TYPE:SKIRT
G1 F1800 X33.87 Y38.883 E0.01485
G1 X34.561 Y38.499 E0.02972
G1 X35.286 Y38.187 E0.04457
G1 X36.039 Y37.95 E0.05942
G1 X36.813 Y37.791 E0.07428
G1 X37.598 Y37.71 E0.08913
G1 X38 Y37.7 E0.09669
G1 X82 Y37.7 E0.92435
G1 X82.789 Y37.74 E0.93921
G1 X83.569 Y37.859 E0.95406
G1 X84.334 Y38.057 E0.96892
G1 X85.074 Y38.331 E0.98376
G1 X85.783 Y38.679 E0.99862
G1 X86.454 Y39.097 E1.01349
G1 X87.078 Y39.58 E1.02833
G1 X87.651 Y40.123 E1.04318
G1 X88.166 Y40.722 E1.05804
G1 X88.617 Y41.37 E1.07289
G1 X89.001 Y42.061 E1.08776
G1 X89.313 Y42.786 E1.10261
G1 X89.55 Y43.539 E1.11746
G1 X89.709 Y44.313 E1.13232
G1 X89.79 Y45.098 E1.14717
G1 X89.8 Y45.5 E1.15473
G1 X89.8 Y89.5 E1.9824
G1 X89.76 Y90.289 E1.99726
G1 X89.641 Y91.069 E2.0121
G1 X89.443 Y91.834 E2.02696
G1 X89.169 Y92.574 E2.04181
G1 X88.821 Y93.283 E2.05666
G1 X88.403 Y93.954 E2.07154
G1 X87.92 Y94.578 E2.08638
G1 X87.377 Y95.151 E2.10123
G1 X86.778 Y95.666 E2.11609
G1 X86.13 Y96.117 E2.13094
G1 X85.439 Y96.501 E2.14581
G1 X84.714 Y96.813 E2.16066
G1 X83.961 Y97.05 E2.1755
G1 X83.187 Y97.209 E2.19037
G1 X82.402 Y97.29 E2.20521
G1 X82 Y97.3 E2.21278
G1 X38 Y97.3 E3.04044
G1 X37.211 Y97.26 E3.0553
G1 X36.431 Y97.141 E3.07014
G1 X35.666 Y96.943 E3.08501
G1 X34.926 Y96.669 E3.09985
G1 X34.217 Y96.321 E3.11471
G1 X33.546 Y95.903 E3.12958
G1 X32.922 Y95.42 E3.14442
G1 X32.349 Y94.877 E3.15927
G1 X31.834 Y94.278 E3.17413
G1 X31.383 Y93.63 E3.18898
G1 X30.999 Y92.939 E3.20385
G1 X30.687 Y92.214 E3.2187
G1 X30.45 Y91.461 E3.23355
G1 X30.291 Y90.687 E3.24841
G1 X30.21 Y89.902 E3.26326
G1 X30.2 Y89.5 E3.27082
G1 X30.2 Y45.5 E4.09849
G1 X30.24 Y44.711 E4.11335
G1 X30.359 Y43.931 E4.12819
G1 X30.557 Y43.166 E4.14305
G1 X30.831 Y42.426 E4.1579
G1 X31.179 Y41.717 E4.17275
G1 X31.597 Y41.046 E4.18762
G1 X32.08 Y40.422 E4.20247
G1 X32.623 Y39.849 E4.21732
G1 X33.222 Y39.334 E4.23217
G0 F3600 X33.611 Y39.542
G1 F1800 X34.253 Y39.119 E4.24664
G1 X34.936 Y38.764 E4.26112
G1 X35.651 Y38.483 E4.27557
G1 X36.393 Y38.277 E4.29005
G1 X37.151 Y38.149 E4.30451
G1 X38 Y38.1 E4.32051
G1 X82 Y38.1 E5.14817
G1 X82.768 Y38.14 E5.16264
G1 X83.528 Y38.259 E5.17711
G1 X84.271 Y38.457 E5.19157
G1 X84.99 Y38.731 E5.20605
G1 X85.676 Y39.078 E5.22051
G1 X86.323 Y39.494 E5.23498
G1 X86.923 Y39.975 E5.24944
G1 X87.47 Y40.516 E5.26391
G1 X87.958 Y41.111 E5.27839
G1 X88.381 Y41.753 E5.29285
G1 X88.736 Y42.436 E5.30733
G1 X89.017 Y43.151 E5.32178
G1 X89.223 Y43.893 E5.33627
G1 X89.351 Y44.651 E5.35073
G1 X89.4 Y45.5 E5.36672
G1 X89.4 Y89.5 E6.19439
G1 X89.36 Y90.268 E6.20886
G1 X89.241 Y91.028 E6.22333
G1 X89.043 Y91.771 E6.23779
G1 X88.769 Y92.49 E6.25226
G1 X88.422 Y93.176 E6.26672
G1 X88.006 Y93.823 E6.28119
G1 X87.525 Y94.423 E6.29566
G1 X86.984 Y94.97 E6.31013
G1 X86.389 Y95.458 E6.32461
G1 X85.747 Y95.881 E6.33907
G1 X85.064 Y96.236 E6.35355
G1 X84.349 Y96.517 E6.368
G1 X83.607 Y96.723 E6.38248
G1 X82.849 Y96.851 E6.39694
G1 X82 Y96.9 E6.41294
G1 X38 Y96.9 E7.2406
G1 X37.232 Y96.86 E7.25507
G1 X36.472 Y96.741 E7.26954
G1 X35.729 Y96.543 E7.28401
G1 X35.01 Y96.269 E7.29848
G1 X34.324 Y95.922 E7.31294
G1 X33.677 Y95.506 E7.32741
G1 X33.077 Y95.025 E7.34187
G1 X32.53 Y94.484 E7.35635
G1 X32.042 Y93.889 E7.37082
G1 X31.619 Y93.247 E7.38528
G1 X31.264 Y92.564 E7.39976
G1 X30.983 Y91.849 E7.41421
G1 X30.777 Y91.107 E7.4287
G1 X30.649 Y90.349 E7.44316
G1 X30.6 Y89.5 E7.45916
G1 X30.6 Y45.5 E8.28682
G1 X30.64 Y44.732 E8.30129
G1 X30.759 Y43.972 E8.31576
G1 X30.957 Y43.229 E8.33022
G1 X31.231 Y42.51 E8.34469
G1 X31.578 Y41.824 E8.35916
G1 X31.994 Y41.177 E8.37362
G1 X32.475 Y40.577 E8.38809
G1 X33.016 Y40.03 E8.40256
G1 X33.611 Y39.542 E8.41704
G0 F3600 X33.998 Y39.757
G1 F1800 X34.634 Y39.362 E8.43112
G1 X35.308 Y39.038 E8.44519
G1 X36.013 Y38.788 E8.45926
G1 X36.741 Y38.614 E8.47334
G1 X37.483 Y38.519 E8.48741
G1 X38 Y38.5 E8.49714
G1 X82 Y38.5 E9.3248
G1 X82.747 Y38.54 E9.33888
G1 X83.485 Y38.659 E9.35294
G1 X84.207 Y38.857 E9.36702
G1 X84.903 Y39.13 E9.38108
G1 X85.566 Y39.477 E9.39516
G1 X86.189 Y39.892 E9.40924
G1 X86.763 Y40.371 E9.4233
G1 X87.284 Y40.908 E9.43738
G1 X87.743 Y41.498 E9.45144
G1 X88.138 Y42.134 E9.46552
G1 X88.462 Y42.808 E9.47959
G1 X88.712 Y43.513 E9.49366
G1 X88.886 Y44.241 E9.50774
G1 X88.981 Y44.983 E9.52181
G1 X89 Y45.5 E9.53154
G1 X89 Y89.5 E10.35921
G1 X88.96 Y90.247 E10.37328
G1 X88.841 Y90.985 E10.38734
G1 X88.643 Y91.707 E10.40142
G1 X88.37 Y92.403 E10.41549
G1 X88.023 Y93.066 E10.42956
G1 X87.608 Y93.689 E10.44364
G1 X87.129 Y94.263 E10.45771
G1 X86.592 Y94.784 E10.47178
G1 X86.002 Y95.243 E10.48584
G1 X85.366 Y95.638 E10.49992
G1 X84.692 Y95.962 E10.51399
G1 X83.987 Y96.212 E10.52806
G1 X83.259 Y96.386 E10.54214
G1 X82.517 Y96.481 E10.55621
G1 X82 Y96.5 E10.56595
G1 X38 Y96.5 E11.39361
G1 X37.253 Y96.46 E11.40768
G1 X36.515 Y96.341 E11.42174
G1 X35.793 Y96.143 E11.43583
G1 X35.097 Y95.87 E11.44989
G1 X34.434 Y95.523 E11.46396
G1 X33.811 Y95.108 E11.47805
G1 X33.237 Y94.629 E11.49211
G1 X32.716 Y94.092 E11.50618
G1 X32.257 Y93.502 E11.52024
G1 X31.862 Y92.866 E11.53433
G1 X31.538 Y92.192 E11.54839
G1 X31.288 Y91.487 E11.56246
G1 X31.114 Y90.759 E11.57654
G1 X31.019 Y90.017 E11.59062
G1 X31 Y89.5 E11.60035
G1 X31 Y45.5 E12.42801
G1 X31.04 Y44.753 E12.44208
G1 X31.159 Y44.015 E12.45615
G1 X31.357 Y43.293 E12.47023
G1 X31.63 Y42.597 E12.48429
G1 X31.977 Y41.934 E12.49837
G1 X32.392 Y41.311 E12.51245
G1 X32.871 Y40.737 E12.52651
G1 X33.408 Y40.216 E12.54059
G1 X33.998 Y39.757 E12.55465
G0 F3600 X33.799 Y40.409
G1 F1800 X34.384 Y39.979 E12.5683
G1 X35.013 Y39.615 E12.58197
G1 X35.678 Y39.322 E12.59564
G1 X36.371 Y39.104 E12.60931
G1 X37.083 Y38.964 E12.62296
G1 X38 Y38.9 E12.64025
G1 X82 Y38.9 E13.46791
G1 X82.725 Y38.94 E13.48157
G1 X83.442 Y39.059 E13.49524
G1 X84.141 Y39.257 E13.50891
G1 X84.814 Y39.53 E13.52257
G1 X85.453 Y39.875 E13.53623
G1 X86.05 Y40.289 E13.5499
G1 X86.598 Y40.765 E13.56355
G1 X87.091 Y41.299 E13.57722
G1 X87.521 Y41.884 E13.59088
G1 X87.885 Y42.513 E13.60455
G1 X88.178 Y43.178 E13.61822
G1 X88.396 Y43.871 E13.63188
G1 X88.536 Y44.583 E13.64553
G1 X88.6 Y45.5 E13.66283
G1 X88.6 Y89.5 E14.49049
G1 X88.56 Y90.225 E14.50415
G1 X88.441 Y90.942 E14.51782
G1 X88.243 Y91.641 E14.53149
G1 X87.97 Y92.314 E14.54515
G1 X87.625 Y92.953 E14.55881
G1 X87.211 Y93.55 E14.57247
G1 X86.735 Y94.098 E14.58613
G1 X86.201 Y94.591 E14.5998
G1 X85.616 Y95.021 E14.61346
G1 X84.987 Y95.385 E14.62713
G1 X84.322 Y95.678 E14.64079
G1 X83.629 Y95.896 E14.65446
G1 X82.917 Y96.036 E14.66811
G1 X82 Y96.1 E14.6854
G1 X38 Y96.1 E15.51307
G1 X37.275 Y96.06 E15.52672
G1 X36.558 Y95.941 E15.5404
G1 X35.859 Y95.743 E15.55406
G1 X35.186 Y95.47 E15.56772
G1 X34.547 Y95.125 E15.58138
G1 X33.95 Y94.711 E15.59505
G1 X33.402 Y94.235 E15.6087
G1 X32.909 Y93.701 E15.62237
G1 X32.479 Y93.116 E15.63603
G1 X32.115 Y92.487 E15.6497
G1 X31.822 Y91.822 E15.66337
G1 X31.604 Y91.129 E15.67704
G1 X31.464 Y90.417 E15.69069
G1 X31.4 Y89.5 E15.70798
G1 X31.4 Y45.5 E16.53564
G1 X31.44 Y44.775 E16.5493
G1 X31.559 Y44.058 E16.56297
G1 X31.757 Y43.359 E16.57664
G1 X32.03 Y42.686 E16.5903
G1 X32.375 Y42.047 E16.60396
G1 X32.789 Y41.45 E16.61762
G1 X33.265 Y40.902 E16.63128
G1 X33.799 Y40.409 E16.64495
G0 F3600 X34.189 Y40.609
G1 F1800 X34.768 Y40.209 E16.65819
G1 X35.389 Y39.877 E16.67143
G1 X36.043 Y39.617 E16.68467
G1 X36.723 Y39.433 E16.69792
G1 X37.419 Y39.327 E16.71117
G1 X38 Y39.3 E16.72211
G1 X82 Y39.3 E17.54977
G1 X82.703 Y39.34 E17.56302
G1 X83.397 Y39.459 E17.57626
G1 X84.072 Y39.657 E17.58949
G1 X84.721 Y39.929 E17.60273
G1 X85.335 Y40.274 E17.61598
G1 X85.906 Y40.685 E17.62921
G1 X86.427 Y41.159 E17.64246
G1 X86.891 Y41.689 E17.65571
G1 X87.291 Y42.268 E17.66895
G1 X87.623 Y42.889 E17.6822
G1 X87.883 Y43.543 E17.69543
G1 X88.067 Y44.223 E17.70869
G1 X88.173 Y44.919 E17.72193
G1 X88.2 Y45.5 E17.73287
G1 X88.2 Y89.5 E18.56053
G1 X88.16 Y90.203 E18.57378
G1 X88.041 Y90.897 E18.58702
G1 X87.843 Y91.572 E18.60026
G1 X87.571 Y92.221 E18.61349
G1 X87.226 Y92.835 E18.62674
G1 X86.815 Y93.406 E18.63998
G1 X86.341 Y93.927 E18.65322
G1 X85.811 Y94.391 E18.66647
G1 X85.232 Y94.791 E18.67971
G1 X84.611 Y95.123 E18.69296
G1 X83.957 Y95.383 E18.7062
G1 X83.277 Y95.567 E18.71945
G1 X82.581 Y95.673 E18.73269
G1 X82 Y95.7 E18.74363
G1 X38 Y95.7 E19.5713
G1 X37.297 Y95.66 E19.58454
G1 X36.603 Y95.541 E19.59779
G1 X35.928 Y95.343 E19.61102
G1 X35.279 Y95.071 E19.62426
G1 X34.665 Y94.726 E19.6375
G1 X34.094 Y94.315 E19.65074
G1 X33.573 Y93.841 E19.66399
G1 X33.109 Y93.311 E19.67724
G1 X32.709 Y92.732 E19.69047
G1 X32.377 Y92.111 E19.70372
G1 X32.117 Y91.457 E19.71696
G1 X31.933 Y90.777 E19.73021
G1 X31.827 Y90.081 E19.74345
G1 X31.8 Y89.5 E19.75439
G1 X31.8 Y45.5 E20.58206
G1 X31.84 Y44.797 E20.5953
G1 X31.959 Y44.103 E20.60855
G1 X32.157 Y43.428 E20.62178
G1 X32.429 Y42.779 E20.63502
G1 X32.774 Y42.165 E20.64827
G1 X33.185 Y41.594 E20.6615
G1 X33.659 Y41.073 E20.67475
G1 X34.189 Y40.609 E20.688
G0 F3600 X34.578 Y40.817
G1 F1800 X35.15 Y40.448 E20.7008
G1 X35.762 Y40.149 E20.71362
G1 X36.404 Y39.924 E20.72641
G1 X37.069 Y39.775 E20.73923
G1 X38 Y39.7 E20.7568
G1 X82 Y39.7 E21.58447
G1 X82.68 Y39.74 E21.59728
G1 X83.35 Y39.859 E21.61008
G1 X84.002 Y40.056 E21.62289
G1 X84.626 Y40.328 E21.6357
G1 X85.214 Y40.672 E21.64851
G1 X85.758 Y41.082 E21.66132
G1 X86.249 Y41.553 E21.67412
G1 X86.683 Y42.078 E21.68694
G1 X87.052 Y42.65 E21.69974
G1 X87.351 Y43.262 E21.71255
G1 X87.576 Y43.904 E21.72535
G1 X87.725 Y44.569 E21.73817
G1 X87.8 Y45.5 E21.75574
G1 X87.8 Y89.5 E22.5834
G1 X87.76 Y90.18 E22.59622
G1 X87.641 Y90.85 E22.60902
G1 X87.444 Y91.502 E22.62183
G1 X87.172 Y92.126 E22.63463
G1 X86.828 Y92.714 E22.64745
G1 X86.418 Y93.258 E22.66026
G1 X85.947 Y93.749 E22.67306
G1 X85.422 Y94.183 E22.68587
G1 X84.85 Y94.552 E22.69868
G1 X84.238 Y94.851 E22.71149
G1 X83.596 Y95.076 E22.72429
G1 X82.931 Y95.225 E22.7371
G1 X82 Y95.3 E22.75467
G1 X38 Y95.3 E23.58234
G1 X37.32 Y95.26 E23.59515
G1 X36.65 Y95.141 E23.60795
G1 X35.998 Y94.944 E23.62076
G1 X35.374 Y94.672 E23.63357
G1 X34.786 Y94.328 E23.64638
G1 X34.242 Y93.918 E23.6592
G1 X33.751 Y93.447 E23.672
G1 X33.317 Y92.922 E23.68481
G1 X32.948 Y92.35 E23.69761
G1 X32.649 Y91.738 E23.71042
G1 X32.424 Y91.096 E23.72322
G1 X32.275 Y90.431 E23.73604
G1 X32.2 Y89.5 E23.75361
G1 X32.2 Y45.5 E24.58127
G1 X32.24 Y44.82 E24.59409
G1 X32.359 Y44.15 E24.60689
G1 X32.556 Y43.498 E24.6197
G1 X32.828 Y42.874 E24.6325
G1 X33.172 Y42.286 E24.64532
G1 X33.582 Y41.742 E24.65813
G1 X34.053 Y41.251 E24.67093
G1 X34.578 Y40.817 E24.68374
G0 F3600 X34.445 Y41.435
G1 F1800 X34.965 Y41.034 E24.6961
G1 X35.529 Y40.698 E24.70845
G1 X36.131 Y40.434 E24.72081
G1 X36.76 Y40.244 E24.73317
G1 X37.407 Y40.133 E24.74552
G1 X38 Y40.1 E24.75669
G1 X82 Y40.1 E25.58436
G1 X82.656 Y40.14 E25.59672
G1 X83.302 Y40.259 E25.60907
G1 X83.929 Y40.456 E25.62144
G1 X84.527 Y40.728 E25.63379
G1 X85.088 Y41.07 E25.64615
G1 X85.603 Y41.478 E25.65851
G1 X86.065 Y41.945 E25.67087
G1 X86.466 Y42.465 E25.68322
G1 X86.802 Y43.029 E25.69557
G1 X87.066 Y43.631 E25.70794
G1 X87.256 Y44.26 E25.7203
G1 X87.367 Y44.907 E25.73264
G1 X87.4 Y45.5 E25.74382
G1 X87.4 Y89.5 E26.57148
G1 X87.36 Y90.156 E26.58384
G1 X87.241 Y90.802 E26.5962
G1 X87.044 Y91.429 E26.60856
G1 X86.772 Y92.027 E26.62092
G1 X86.43 Y92.588 E26.63328
G1 X86.022 Y93.103 E26.64564
G1 X85.555 Y93.565 E26.65799
G1 X85.035 Y93.966 E26.67035
G1 X84.471 Y94.302 E26.6827
G1 X83.869 Y94.566 E26.69506
G1 X83.24 Y94.756 E26.70742
G1 X82.593 Y94.867 E26.71977
G1 X82 Y94.9 E26.73094
G1 X38 Y94.9 E27.5586
G1 X37.344 Y94.86 E27.57097
G1 X36.698 Y94.741 E27.58332
G1 X36.071 Y94.544 E27.59569
G1 X35.473 Y94.272 E27.60804
G1 X34.912 Y93.93 E27.6204
G1 X34.397 Y93.522 E27.63276
G1 X33.935 Y93.055 E27.64512
G1 X33.534 Y92.535 E27.65747
G1 X33.198 Y91.971 E27.66982
G1 X32.934 Y91.369 E27.68219
G1 X32.744 Y90.74 E27.69454
G1 X32.633 Y90.093 E27.70689
G1 X32.6 Y89.5 E27.71807
G1 X32.6 Y45.5 E28.54573
G1 X32.64 Y44.844 E28.55809
G1 X32.759 Y44.198 E28.57045
G1 X32.956 Y43.571 E28.58281
G1 X33.228 Y42.973 E28.59517
G1 X33.57 Y42.412 E28.60753
G1 X33.978 Y41.897 E28.61989
G1 X34.445 Y41.435 E28.63224
G0 F3600 X34.836 Y41.629
G1 F1800 X35.35 Y41.26 E28.64415
G1 X35.906 Y40.96 E28.65603
G1 X36.495 Y40.732 E28.66791
G1 X37.109 Y40.58 E28.67981
G1 X38 Y40.5 E28.69664
G1 X82 Y40.5 E29.5243
G1 X82.631 Y40.54 E29.53619
G1 X83.252 Y40.659 E29.54809
G1 X83.852 Y40.856 E29.55997
G1 X84.424 Y41.127 E29.57187
G1 X84.956 Y41.467 E29.58375
G1 X85.441 Y41.873 E29.59565
G1 X85.871 Y42.336 E29.60753
G1 X86.24 Y42.85 E29.61944
G1 X86.54 Y43.406 E29.63132
G1 X86.768 Y43.995 E29.6432
G1 X86.92 Y44.609 E29.6551
G1 X87 Y45.5 E29.67193
G1 X87 Y89.5 E30.49959
G1 X86.96 Y90.131 E30.51148
G1 X86.841 Y90.752 E30.52338
G1 X86.644 Y91.352 E30.53526
G1 X86.373 Y91.924 E30.54716
G1 X86.033 Y92.456 E30.55904
G1 X85.627 Y92.941 E30.57094
G1 X85.164 Y93.371 E30.58282
G1 X84.65 Y93.74 E30.59472
G1 X84.094 Y94.04 E30.60661
G1 X83.505 Y94.268 E30.61849
G1 X82.891 Y94.42 E30.63039
G1 X82 Y94.5 E30.64722
G1 X38 Y94.5 E31.47488
G1 X37.369 Y94.46 E31.48677
G1 X36.748 Y94.341 E31.49867
G1 X36.148 Y94.144 E31.51055
G1 X35.576 Y93.873 E31.52245
G1 X35.044 Y93.533 E31.53433
G1 X34.559 Y93.127 E31.54623
G1 X34.129 Y92.664 E31.55811
G1 X33.76 Y92.15 E31.57001
G1 X33.46 Y91.594 E31.5819
G1 X33.232 Y91.005 E31.59378
G1 X33.08 Y90.391 E31.60568
G1 X33 Y89.5 E31.62251
G1 X33 Y45.5 E32.45017
G1 X33.04 Y44.869 E32.46206
G1 X33.159 Y44.248 E32.47396
G1 X33.356 Y43.648 E32.48584
G1 X33.627 Y43.076 E32.49774
G1 X33.967 Y42.544 E32.50962
G1 X34.373 Y42.059 E32.52152
G1 X34.836 Y41.629 E32.5334
G0 F3600 X35.225 Y41.831
G1 F1800 X35.732 Y41.498 E32.54481
G1 X36.278 Y41.234 E32.55622
G1 X36.854 Y41.045 E32.56762
G1 X37.45 Y40.933 E32.57903
G1 X38 Y40.9 E32.5894
G1 X82 Y40.9 E33.41706
G1 X82.605 Y40.94 E33.42847
G1 X83.199 Y41.059 E33.43986
G1 X83.773 Y41.255 E33.45127
G1 X84.316 Y41.526 E33.46269
G1 X84.819 Y41.865 E33.4741
G1 X85.272 Y42.267 E33.48549
G1 X85.669 Y42.725 E33.49689
G1 X86.002 Y43.232 E33.5083
G1 X86.266 Y43.778 E33.51971
G1 X86.455 Y44.354 E33.53111
G1 X86.567 Y44.95 E33.54252
G1 X86.6 Y45.5 E33.55288
G1 X86.6 Y89.5 E34.38055
G1 X86.56 Y90.105 E34.39195
G1 X86.441 Y90.699 E34.40335
G1 X86.245 Y91.273 E34.41476
G1 X85.974 Y91.816 E34.42617
G1 X85.635 Y92.319 E34.43758
G1 X85.233 Y92.772 E34.44898
G1 X84.775 Y93.169 E34.46038
G1 X84.268 Y93.502 E34.47179
G1 X83.722 Y93.766 E34.48319
G1 X83.146 Y93.955 E34.4946
G1 X82.55 Y94.067 E34.50601
G1 X82 Y94.1 E34.51637
G1 X38 Y94.1 E35.34403
G1 X37.395 Y94.06 E35.35544
G1 X36.801 Y93.941 E35.36684
G1 X36.227 Y93.745 E35.37824
G1 X35.684 Y93.474 E35.38966
G1 X35.181 Y93.135 E35.40107
G1 X34.728 Y92.733 E35.41246
G1 X34.331 Y92.275 E35.42386
G1 X33.998 Y91.768 E35.43527
G1 X33.734 Y91.222 E35.44668
G1 X33.545 Y90.646 E35.45809
G1 X33.433 Y90.05 E35.46949
G1 X33.4 Y89.5 E35.47986
G1 X33.4 Y45.5 E36.30752
G1 X33.44 Y44.895 E36.31893
G1 X33.559 Y44.301 E36.33032
G1 X33.755 Y43.727 E36.34173
G1 X34.026 Y43.184 E36.35315
G1 X34.365 Y42.681 E36.36456
G1 X34.767 Y42.228 E36.37595
G1 X35.225 Y41.831 E36.38735
G0 F3600 X35.613 Y42.044
G1 F1800 X36.111 Y41.749 E36.39824
G1 X36.645 Y41.524 E36.40914
G1 X37.205 Y41.376 E36.42003
G1 X38 Y41.3 E36.43506
G1 X82 Y41.3 E37.26272
G1 X82.578 Y41.34 E37.27362
G1 X83.145 Y41.459 E37.28452
G1 X83.69 Y41.655 E37.29541
G1 X84.203 Y41.924 E37.30631
G1 X84.674 Y42.261 E37.3172
G1 X85.094 Y42.66 E37.3281
G1 X85.456 Y43.113 E37.33901
G1 X85.751 Y43.611 E37.3499
G1 X85.976 Y44.145 E37.3608
G1 X86.124 Y44.705 E37.37169
G1 X86.2 Y45.5 E37.38671
G1 X86.2 Y89.5 E38.21438
G1 X86.16 Y90.078 E38.22528
G1 X86.041 Y90.645 E38.23617
G1 X85.845 Y91.19 E38.24707
G1 X85.576 Y91.703 E38.25797
G1 X85.239 Y92.174 E38.26886
G1 X84.84 Y92.594 E38.27976
